src/assets/icons/default/IconNotification.svg

<svg width="20" height="20" viewBox="0 0 31 34" fill="none" xmlns="http://www.w3.org/2000/svg">
<path d="M26.678 21.6822C26.3577 21.6822 26.0973 21.4216 26.0973 21.1024V15.2412C26.0973 10.5889 23.0773 6.62954 18.8938 5.2134C18.979 4.90853 19.0235 4.59121 19.0235 4.26936C19.0235 2.3283 17.4429 0.75 15.5 0.75C13.5572 0.75 11.9766 2.3283 11.9766 4.26943C11.9766 4.59283 12.0201 4.91 12.1044 5.21411C7.92195 6.63075 4.9028 10.5896 4.9028 15.2412V21.1025C4.9028 21.4217 4.64233 21.6823 4.32208 21.6823C2.35245 21.6823 0.75 23.2824 0.75 25.2502C0.75 27.2181 2.35245 28.8182 4.32208 28.8182H11.7626C11.7265 29.0289 11.7079 29.2441 11.7079 29.4623C11.7079 31.5514 13.4091 33.2501 15.5 33.2501C17.5909 33.2501 19.2922 31.5514 19.2922 29.4623C19.2922 29.2442 19.2736 29.0289 19.2374 28.8182H26.6779C28.6475 28.8182 30.25 27.2181 30.25 25.2502C30.2501 23.2823 28.6476 21.6822 26.678 21.6822ZM14.3636 4.26943C14.3636 3.64424 14.8733 3.13468 15.5 3.13468C16.1267 3.13468 16.6365 3.64424 16.6365 4.26943C16.6365 4.42169 16.6059 4.57093 16.5478 4.70889C16.2033 4.67479 15.8538 4.65676 15.5 4.65676C15.1465 4.65676 14.7973 4.67475 14.453 4.70883C14.3946 4.57141 14.3636 4.42294 14.3636 4.26943ZM16.9053 29.4622C16.9053 30.2354 16.2749 30.8653 15.5001 30.8653C14.7252 30.8653 14.0949 30.2354 14.0949 29.4622C14.0949 29.2338 14.1492 29.0145 14.2512 28.8182H16.7489C16.851 29.0145 16.9053 29.2338 16.9053 29.4622ZM26.678 26.4335H4.32208C3.66857 26.4335 3.13701 25.9021 3.13701 25.2502C3.13701 24.5982 3.66857 24.0669 4.32208 24.0669C5.9584 24.0669 7.28981 22.7375 7.28981 21.1024V15.2412C7.28981 10.7203 10.9728 7.04138 15.5 7.04138C20.0273 7.04138 23.7102 10.7203 23.7102 15.2412V21.1024C23.7102 22.7375 25.0417 24.0669 26.678 24.0669C27.3315 24.0669 27.8631 24.5982 27.8631 25.2502C27.8631 25.9021 27.3315 26.4335 26.678 26.4335Z" fill="#999999" stroke="#999999" stroke-width="0.5"/>
</svg>

<svg xmlns="http://www.w3.org/2000/svg" width="20" height="20" fill="none" viewBox="0 0 31 34">
  <path fill="#999" stroke="#999" stroke-width=".5" d="M26.68 21.68a.6.6 0 0 1-.58-.58v-5.86a10.6 10.6 0 0 0-7.2-10.03A3.5 3.5 0 0 0 15.5.75a3.53 3.53 0 0 0-3.4 4.46 10.6 10.6 0 0 0-7.2 10.03v5.86c0 .32-.26.58-.58.58a3.57 3.57 0 0 0 0 7.14h7.44q-.05.3-.05.64a3.8 3.8 0 1 0 7.53-.64h7.44a3.57 3.57 0 0 0 0-7.14ZM14.36 4.27a1.14 1.14 0 1 1 2.19.44 11 11 0 0 0-2.1 0 1 1 0 0 1-.09-.44Zm2.55 25.2a1.4 1.4 0 1 1-2.66-.65h2.5q.16.3.16.64Zm9.77-3.04H4.32a1.19 1.19 0 0 1 0-2.36A2.97 2.97 0 0 0 7.3 21.1v-5.86a8.21 8.21 0 0 1 16.42 0v5.86a2.97 2.97 0 0 0 2.97 2.97 1.19 1.19 0 0 1 0 2.36Z"/>
</svg>
